svgs/sharp-regular/object-ungroup.svg

<svg xmlns="http://www.w3.org/2000/svg" viewBox="0 0 640 512"><!--! Font Awesome Pro 6.6.0 by @fontawesome - https://fontawesome.com License - https://fontawesome.com/license (Commercial License) Copyright 2024 Fonticons, Inc. --><path d="M48 48l0 32 32 0 0-32L48 48zM0 0L48 0 80 0l48 0 0 40 192 0 0-40 48 0 32 0 48 0 0 48 0 32 0 48-40 0 0 96 40 0 0 48 0 32 0 48-48 0-32 0-48 0 0-40-192 0 0 40-48 0-32 0L0 352l0-48 0-32 0-48 40 0 0-96L0 128 0 80 0 48 0 0zM88 128l0 96 40 0 0 40 192 0 0-40 40 0 0-96-40 0 0-40L128 88l0 40-40 0zM80 272l-32 0 0 32 32 0 0-32zM400 48l-32 0 0 32 32 0 0-32zM368 272l0 32 32 0 0-32-32 0zM592 432l-32 0 0 32 32 0 0-32zm-40-48l0-96-40 0 0-40-32 0 0-48 32 0 0-40 48 0 32 0 48 0 0 48 0 32 0 48-40 0 0 96 40 0 0 48 0 32 0 48-48 0-32 0-48 0 0-40-192 0 0 40-48 0-32 0-48 0 0-48 0-32 0-48 40 0 0-32 48 0 0 32 40 0 0 40 192 0 0-40 40 0zm8-176l0 32 32 0 0-32-32 0zM272 432l-32 0 0 32 32 0 0-32z"/></svg>

<svg xmlns="http://www.w3.org/2000/svg" viewBox="0 0 640 512"><!--! Font Awesome Pro 6.4.0 by @fontawesome - https://fontawesome.com License - https://fontawesome.com/license (Commercial License) Copyright 2023 Fonticons, Inc. --><path d="M48 48V80H80V48H48zM0 0H48 80h48V40H320V0h48 32 48V48 80v48H408v96h40v48 32 48H400 368 320V312H128v40H80 48 0V304 272 224H40V128H0V80 48 0zM88 128v96h40v40H320V224h40V128H320V88H128v40H88zM80 272H48v32H80V272zM400 48H368V80h32V48zM368 272v32h32V272H368zM592 432H560v32h32V432zm-40-48V288H512V248H480V200h32V160h48 32 48v48 32 48H600v96h40v48 32 48H592 560 512V472H320v40H272 240 192V464 432 384h40V352h48v32h40v40H512V384h40zm8-176v32h32V208H560zM272 432H240v32h32V432z"/></svg>
